X: 2084
T: Çarşamba`yı Sel Aldı
C: Nejat Buhara
O: Turkey
F: http://compmusic.upf.edu/node/140
N: hicaz--turku--turkaksagi--carsambayi_sel--
N: makam= hicaz
N: form= turku
N: usul= turkaksagi = 5/8
M: 5/8
L: 1/16
K: C _7/8B ^f ^c 
Q: 1/4=51
%%MIDI tuningsystem comma53
z2cdee3 efgfg2=fe f3/2e/d2 | z16 | e=ffef2ede2dcd3/2c/B2  | 
w:  Çar şam ba yı  sel_ al *  *  dı    |  |  Bir  *  yâr  *  *  *  *  sev dim   | 
cddcd2cBc2BABA3 | cddcd2cBc2BAB2A2  | 
w:  el_ *  al *  *  *  *  dı  a man_ a man    |  Bir  *  yâr  *  *  *  *  sev dim   | 
c/BA/A6A3dcde2 | z16-z4 | z2cd e2e2efgf g2=fef3/2e/d2  | 
w:  el_ *  *  al dı   SAZ  |  |  Keş ke  sev mez  o lay *  *  dım    | 
z16  | e=ffef2ede2dcd3/2c/B2 | cddcd2cBc2BABA3  | 
w:  |  E *  lim  *  *  *  *  koy num  |  da  *  kal *  *  *  *  dı  a man_ a man    | 
cddcd2cBc2BAB2A2 | c/BA/A6A3AAAA2  | 
w:  E *  lim  *  *  *  *  koy num  |  da  *  *  kal dı   SAZ  | 
e2=fef2ede2dcd3/2c/B2 | cddcd2cBc2BABA3  | 
w:  Oy  ney_ *  *  *  *  i miş   |  ney_ *  i *  *  *  *  miş_ a man_ a man    | 
cddcd2cBc2BAB2A2 | c/BA/A6A3AAAA2  | 
w:  Ka *  de *  *  *  *  rim  böy  |  le *  *  yi miş   SAZ  | 
e2=fef2ede2dcd3/2c/B2 | cddcd2cBc2BABA3  | 
w:  Giz li  *  *  *  *  sev dâ   |  çek *  me *  *  *  *  si  a man_ a man    | 
cddcd2cBc2BABAA2 | c/BA/A6A3AAAA2  | 
w:  A *  teş *  *  *  *  ten  göm  |  le *  *  ği miş   SAZ  | 
|


